public/send.svg

<?xml version="1.0" encoding="UTF-8"?>
<svg width="56px" height="52px" viewBox="0 0 56 52" version="1.1" xmlns="http://www.w3.org/2000/svg" xmlns:xlink="http://www.w3.org/1999/xlink">
    <!-- Generator: Sketch 48.2 (47327) - http://www.bohemiancoding.com/sketch -->
    <title>Icon:  Send</title>
    <desc>Created with Sketch.</desc>
    <defs></defs>
    <g id="Chat-wih-Jina" stroke="none" stroke-width="1" fill="none" fill-rule="evenodd" transform="translate(-659.000000, -1257.000000)">
        <g id="Response" transform="translate(0.000000, 1195.000000)" fill="#000000">
            <g id="Icon:--Send">
                <path d="M699.871385,87.432 C699.454615,87.842 698.895692,88.049 698.335692,88.049 C697.809077,88.049 697.283538,87.867 696.873231,87.5 L689.152769,81 L689.152769,99.999 C689.152769,101.097 688.170615,101.999 687,101.999 C685.828308,101.999 684.846154,101.097 684.846154,99.999 L684.846154,81 L677.528462,87.5 C676.680923,88.258 675.339077,88.227 674.530308,87.432 C673.722615,86.637 673.756,85.379 674.604615,84.622 L685.738923,74.682 C686.557385,73.952 687.845385,73.952 688.662769,74.682 L699.797077,84.622 C700.645692,85.379 700.679077,86.637 699.871385,87.432 M687,62 C671.536462,62 659,73.64 659,87.999 C659,102.359 671.536462,113.999 687,113.999 C702.463538,113.999 715,102.359 715,87.999 C715,73.64 702.463538,62 687,62"></path>
            </g>
        </g>
    </g>
</svg>

<?xml version="1.0" encoding="utf-8"?>
<!-- Generator: Adobe Illustrator 22.0.0, SVG Export Plug-In . SVG Version: 6.00 Build 0)  -->
<svg version="1.1" id="Layer_1" xmlns="http://www.w3.org/2000/svg" xmlns:xlink="http://www.w3.org/1999/xlink" x="0px" y="0px"
	 viewBox="0 0 56 52" style="enable-background:new 0 0 56 52;" xml:space="preserve">
<style type="text/css">
	.st0{fill:#0F90D1;}
</style>
<title>Icon:  Send</title>
<desc>Created with Sketch.</desc>
<g id="Chat-wih-Jina" transform="translate(-659.000000, -1257.000000)">
	<g id="Response" transform="translate(0.000000, 1195.000000)">
		<g id="Icon:--Send">
			<path class="st0" d="M699.9,87.4c-0.4,0.4-1,0.6-1.5,0.6c-0.5,0-1.1-0.2-1.5-0.5l-7.7-6.5v19c0,1.1-1,2-2.2,2
				c-1.2,0-2.2-0.9-2.2-2V81l-7.3,6.5c-0.8,0.8-2.2,0.7-3-0.1c-0.8-0.8-0.8-2.1,0.1-2.8l11.1-9.9c0.8-0.7,2.1-0.7,2.9,0l11.1,9.9
				C700.6,85.4,700.7,86.6,699.9,87.4 M687,62c-15.5,0-28,11.6-28,26c0,14.4,12.5,26,28,26s28-11.6,28-26C715,73.6,702.5,62,687,62"
				/>
		</g>
	</g>
</g>
</svg>
